dist/img/Background-line.svg

<svg width="1440" height="900" fill="none" xmlns="http://www.w3.org/2000/svg"><g clip-path="url(#clip0_1001_84)"><path d="M-3 64.5s148.296 8.997 179 78c13.299 29.887 18.892 60.935 6 91-16.421 38.294-74.813 59.72-105 31-23.908-22.746-40.182-53.638-28.5-84.5 23.296-61.542 79.566-56.961 145-50C296.064 140.911 357.781 248.631 332 348.5c-20.89 80.925-114.718 42.484-128 125-18.042 112.086 294.093 76.179 234 172.5-35.968 57.652-129.407-13.366-144 53-14.009 63.71 43.268 126.5 108.5 126.5 90.5 0 108.403-71.564 183-116 73.297-43.662 102.185-44.594 176.5-86.5 198.494-111.93 303.48-165.995 447-343 30-37 7.71-90.672-34.5-100-49.4-10.917-80.61 36.757-59 82.5 47 99.5 166.68-13.718 248 61.5 60 55.5-37 159.5 36.5 205 54.42 33.69 98.5 131 98.5 131" stroke="#371ED3" stroke-width="2" stroke-linecap="round" stroke-dasharray="20 20"/></g><defs><clipPath id="clip0_1001_84"><path fill="#fff" transform="translate(-3)" d="M0 0h1443v900H0z"/></clipPath></defs></svg>

<svg width="1440" height="900" viewBox="0 0 1440 900" fill="none" xmlns="http://www.w3.org/2000/svg">
<g clip-path="url(#clip0_1001_84)">
<path d="M-3 64.5C-3 64.5 145.296 73.4967 176 142.5C189.299 172.387 194.892 203.435 182 233.5C165.579 271.794 107.187 293.22 77 264.5C53.0923 241.754 36.8175 210.862 48.5 180C71.7961 118.458 128.066 123.039 193.5 130C296.064 140.911 357.781 248.631 332 348.5C311.11 429.425 217.282 390.984 204 473.5C185.958 585.586 498.093 549.679 438 646C402.032 703.652 308.593 632.634 294 699C279.991 762.71 337.268 825.5 402.5 825.5C493 825.5 510.903 753.936 585.5 709.5C658.797 665.838 687.685 664.906 762 623C960.494 511.07 1065.48 457.005 1209 280C1239 243 1216.71 189.328 1174.5 180C1125.1 169.083 1093.89 216.757 1115.5 262.5C1162.5 362 1282.18 248.782 1363.5 324C1423.5 379.5 1326.5 483.5 1400 529C1454.42 562.69 1498.5 660 1498.5 660" stroke="#371ED3" stroke-width="2" stroke-linecap="round" stroke-dasharray="20 20"/>
</g>
<defs>
<clipPath id="clip0_1001_84">
<rect width="1443" height="900" fill="white" transform="translate(-3)"/>
</clipPath>
</defs>
</svg>
